;FLAVOR:Marlin
;TIME:2986
;Filament used: 1.0091m
;Layer height: 0.12
;MINX:60.413
;MINY:53.083
;MINZ:0.12
;MAXX:118.721
;MAXY:115.182
;MAXZ:5.4
;Generated with Cura_SteamEngine 5.4.0
M140 S60
M105
M190 S60
M104 S200
M105
M109 S200
M82 ;absolute extrusion mode
G28 ; home all axes
 M117 Purge extruder
 G92 E0 ; reset extruder
 G1 Z1.0 F3000 ; move z up little to prevent scratching of surface
 G1 X2 Y20 Z0.3 F5000.0 ; move to start-line position
 G1 X2 Y175.0 Z0.3 F1500.0 E15 ; draw 1st line
 G1 X2 Y175.0 Z0.4 F5000.0 ; move to side a little
 G1 X2 Y20 Z0.4 F1500.0 E30 ; draw 2nd line
 G92 E0 ; reset extruder
 G1 Z1.0 F3000 ; move z up little to prevent scratching of surface
G92 E0
G92 E0
G1 F2400 E-1
;LAYER_COUNT:43
;LAYER:0
M107
G1 F240 Z0.36
G0 F6000 X73.067 Y57.24 Z0.36
;TYPE:SKIRT
G1 F240 Z0.12
G1 F2400 E0
G1 F1200 X73.724 Y56.419 E0.02308
G1 X74.533 Y55.586 E0.04857
G1 X75.67 Y54.689 E0.08036
G1 X77.024 Y53.938 E0.11435
G1 X77.905 Y53.608 E0.135
G1 X79.205 Y53.268 E0.1645
G1 X80.827 Y53.083 E0.20034
G1 X81.923 Y53.135 E0.22442
G1 X82.887 Y53.3 E0.24589
G1 X84.564 Y53.805 E0.28434
G1 X85.72 Y54.346 E0.31236
G1 X85.787 Y54.385 E0.31406
G1 X94.007 Y54.385 E0.4945
G1 X94.743 Y53.99 E0.51284
G1 X95.736 Y53.607 E0.5362
G1 X97.091 Y53.248 E0.56697
G1 X97.839 Y53.129 E0.5836
G1 X99.46 Y53.108 E0.61918
G1 X100.426 Y53.244 E0.6406
G1 X102.268 Y53.763 E0.68261
G1 X102.561 Y53.874 E0.68949
G1 X103.642 Y54.4 E0.71588
G1 X104.543 Y54.997 E0.7396
G1 X105.039 Y55.417 E0.75387
G1 X106.573 Y57.07 E0.80337
G1 X106.947 Y57.61 E0.81779
G1 X107.543 Y58.733 E0.8457
G1 X107.896 Y59.633 E0.86692
G1 X108.233 Y60.866 E0.89498
G1 X108.412 Y62.108 E0.92253
G1 X108.417 Y63.226 E0.94707
G1 X108.484 Y64.067 E0.96559
G1 X108.436 Y65.024 E0.98662
G1 X108.231 Y66.191 E1.01263
G1 X108.115 Y66.602 E1.02201
G1 X108.252 Y67.121 E1.03379
G1 X108.392 Y68.009 E1.05353
G1 X108.399 Y69.664 E1.08986
G1 X108.324 Y70.184 E1.10139
G1 X108.42 Y70.793 E1.11492
G1 X108.446 Y72.026 E1.14199
G1 X108.435 Y72.149 E1.14471
G1 X108.947 Y72.099 E1.156
G1 X109.749 Y72.123 E1.17361
G1 X111.191 Y72.353 E1.20567
G1 X112.291 Y72.672 E1.23081
G1 X113.997 Y73.441 E1.27189
G1 X114.583 Y73.819 E1.28719
G1 X115.597 Y74.663 E1.31615
G1 X116.515 Y75.642 E1.34562
G1 X117.325 Y76.761 E1.37594
G1 X117.915 Y77.893 E1.40396
G1 X118.24 Y78.775 E1.4246
G1 X118.547 Y79.924 E1.4507
G1 X118.713 Y81.037 E1.4754
G1 X118.721 Y82.242 E1.50186
G1 X118.513 Y83.695 E1.53408
G1 X118.396 Y84.122 E1.5438
G1 X118.407 Y84.311 E1.54795
G1 X118.361 Y94.527 E1.77221
G1 X118.272 Y95.123 E1.78544
G1 X117.868 Y96.564 E1.81829
G1 X117.538 Y97.316 E1.83632
G1 X117.245 Y97.843 E1.84956
G1 X117.357 Y98.635 E1.86712
G1 X117.367 Y99.05 E1.87623
G1 X117.241 Y100.495 E1.90807
G1 X117.117 Y101.083 E1.92126
G1 X116.662 Y102.541 E1.95479
G1 X115.94 Y104.048 E1.99147
G1 X115.544 Y104.635 E2.00701
G1 X114.718 Y105.594 E2.0348
G1 X113.578 Y106.63 E2.06861
G1 X112.358 Y107.45 E2.10088
G1 X111.481 Y107.875 E2.12227
G1 X110.463 Y108.227 E2.14592
G1 X109.024 Y108.569 E2.17839
G1 X107.88 Y108.686 E2.20363
G1 X107.732 Y109.156 E2.21445
G1 X107.33 Y110.042 E2.23581
G1 X106.636 Y111.146 E2.26443
G1 X105.865 Y112.076 E2.29095
G1 X105.201 Y112.728 E2.31138
G1 X103.899 Y113.716 E2.34726
G1 X102.961 Y114.226 E2.37069
G1 X101.676 Y114.715 E2.40087
G1 X100.69 Y114.974 E2.42325
G1 X98.884 Y115.182 E2.46316
G1 X98.272 Y115.156 E2.47661
G1 X96.534 Y114.862 E2.5153
G1 X95.094 Y114.398 E2.54851
G1 X94.88 Y114.306 E2.55362
G1 X85.466 Y114.259 E2.76028
G1 X84.774 Y114.151 E2.77566
G1 X84.055 Y113.957 E2.792
G1 X83.566 Y114.084 E2.80309
G1 X81.785 Y114.279 E2.84242
G1 X81.013 Y114.236 E2.8594
G1 X79.453 Y113.961 E2.89417
G1 X78.231 Y113.572 E2.92232
G1 X76.867 Y112.924 E2.95547
G1 X76.165 Y112.456 E2.97399
G1 X75.256 Y111.692 E3.00006
G1 X74.487 Y110.9 E3.02429
G1 X73.388 Y109.398 E3.06514
G1 X73.115 Y108.878 E3.07804
G1 X72.969 Y108.521 E3.0865
G1 X72.531 Y108.448 E3.09625
G1 X72.16 Y108.538 E3.10463
G1 X70.681 Y108.681 E3.13725
G1 X70.023 Y108.653 E3.15171
G1 X68.51 Y108.4 E3.18538
G1 X66.909 Y107.889 E3.22227
G1 X65.748 Y107.315 E3.2507
G1 X64.737 Y106.619 E3.27765
G1 X64.288 Y106.227 E3.29073
G1 X63.156 Y105.047 E3.32662
G1 X62.426 Y104.039 E3.35395
G1 X61.882 Y103.015 E3.3794
G1 X61.596 Y102.286 E3.39659
G1 X61.173 Y100.724 E3.43211
G1 X61.002 Y99.19 E3.46599
G1 X61.044 Y98.121 E3.48948
G1 X61.186 Y97.249 E3.50887
G1 X61.585 Y95.874 E3.5403
G1 X61.588 Y85.761 E3.7623
G1 X61.351 Y85.292 E3.77383
G1 X60.926 Y84.157 E3.80044
G1 X60.568 Y82.74 E3.83252
G1 X60.413 Y81.056 E3.86965
G1 X60.437 Y80.55 E3.88077
G1 X60.688 Y79.082 E3.91346
G1 X61.108 Y77.717 E3.94481
G1 X61.687 Y76.469 E3.97501
G1 X62.169 Y75.714 E3.99467
G1 X62.793 Y74.934 E4.0166
G1 X63.714 Y73.993 E4.0455
G1 X64.649 Y73.251 E4.07171
G1 X66.072 Y72.446 E4.10759
G1 X67.016 Y72.086 E4.12977
G1 X68.386 Y71.731 E4.16084
G1 X69.282 Y71.602 E4.18071
G1 X70.091 Y71.564 E4.19849
G1 X71.008 Y71.617 E4.21865
G1 X71.442 Y71.576 E4.22822
G1 X71.567 Y71.575 E4.23097
G1 X71.468 Y71.196 E4.23957
G1 X71.322 Y69.922 E4.26772
G1 X71.363 Y68.623 E4.29624
G1 X71.559 Y67.498 E4.32131
G1 X71.666 Y67.133 E4.32966
G1 X71.446 Y66.231 E4.35004
G1 X71.327 Y64.975 E4.37774
G1 X71.382 Y63.797 E4.40362
G1 X71.397 Y63.678 E4.40626
G1 X71.323 Y62.743 E4.42685
G1 X71.376 Y61.751 E4.44865
G1 X71.547 Y60.767 E4.47058
G1 X72.021 Y59.201 E4.50649
G1 X72.469 Y58.21 E4.53037
G1 X73.067 Y57.24 E4.55538
G0 F6000 X73.442 Y57.471
G1 F1200 X74.04 Y56.726 E4.57635
G1 X74.849 Y55.893 E4.60184
G1 X75.884 Y55.073 E4.63083
G1 X77.18 Y54.35 E4.66341
G1 X78.016 Y54.034 E4.68303
G1 X79.316 Y53.694 E4.71252
G1 X80.806 Y53.523 E4.74545
G1 X81.902 Y53.575 E4.76953
G1 X82.761 Y53.722 E4.78866
G1 X84.377 Y54.204 E4.82568
G1 X85.533 Y54.745 E4.8537
G1 X85.665 Y54.825 E4.85709
G1 X94.119 Y54.825 E5.04267
G1 X94.901 Y54.401 E5.06219
G1 X95.894 Y54.018 E5.08556
G1 X97.16 Y53.683 E5.1143
G1 X97.908 Y53.564 E5.13093
G1 X99.4 Y53.544 E5.16368
G1 X100.307 Y53.668 E5.18378
G1 X102.149 Y54.187 E5.22579
G1 X102.368 Y54.27 E5.23093
G1 X103.449 Y54.796 E5.25732
G1 X104.299 Y55.363 E5.27975
G1 X104.753 Y55.751 E5.29286
G1 X106.211 Y57.321 E5.33989
G1 X106.585 Y57.861 E5.35431
G1 X107.133 Y58.894 E5.37998
G1 X107.486 Y59.794 E5.4012
G1 X107.797 Y60.929 E5.42704
G1 X107.976 Y62.171 E5.45458
G1 X107.977 Y63.249 E5.47825
G1 X108.045 Y64.102 E5.49703
G1 X108.002 Y64.949 E5.51565
G1 X107.807 Y66.072 E5.54067
G1 X107.659 Y66.598 E5.55266
G1 X107.817 Y67.19 E5.56611
G1 X107.957 Y68.078 E5.58585
G1 X107.963 Y69.601 E5.61928
G1 X107.879 Y70.186 E5.63225
G1 X107.985 Y70.861 E5.64725
G1 X108.006 Y72.034 E5.67301
G1 X107.93 Y72.645 E5.68652
G1 X108.934 Y72.539 E5.70868
G1 X109.736 Y72.563 E5.7263
G1 X111.07 Y72.776 E5.75595
G1 X112.111 Y73.074 E5.77972
G1 X113.758 Y73.811 E5.81933
G1 X114.344 Y74.189 E5.83464
G1 X115.277 Y74.965 E5.86128
G1 X116.159 Y75.901 E5.88951
G1 X116.935 Y76.966 E5.91844
G1 X117.502 Y78.046 E5.94521
G1 X117.815 Y78.89 E5.96497
G1 X118.112 Y79.991 E5.99
G1 X118.273 Y81.042 E6.01335
G1 X118.285 Y82.18 E6.03833
G1 X118.077 Y83.633 E6.07055
G1 X117.952 Y84.076 E6.08065
G1 X117.967 Y84.309 E6.08578
G1 X117.925 Y94.465 E6.30872
G1 X117.848 Y95.005 E6.3207
G1 X117.465 Y96.387 E6.35218
G1 X117.135 Y97.139 E6.3702
G1 X116.834 Y97.675 E6.3837
G1 X116.786 Y97.745 E6.38556
G1 X116.921 Y98.697 E6.40667
G1 X116.927 Y99.057 E6.41457
G1 X116.81 Y100.404 E6.44425
G1 X116.686 Y100.992 E6.45744
G1 X116.265 Y102.352 E6.4887
G1 X115.575 Y103.802 E6.52395
G1 X115.179 Y104.389 E6.53949
G1 X114.422 Y105.268 E6.56495
G1 X113.282 Y106.304 E6.59877
G1 X112.166 Y107.054 E6.62829
G1 X111.289 Y107.479 E6.64968
G1 X110.36 Y107.799 E6.67125
G1 X108.978 Y108.131 E6.70245
G1 X107.875 Y108.246 E6.72679
G1 X107.556 Y108.24 E6.7338
G1 X107.331 Y108.974 E6.75065
G1 X106.929 Y109.86 E6.77201
G1 X106.264 Y110.911 E6.79931
G1 X105.555 Y111.763 E6.82364
G1 X104.934 Y112.378 E6.84282
G1 X103.689 Y113.329 E6.87722
G1 X102.751 Y113.839 E6.90065
G1 X101.564 Y114.289 E6.92852
G1 X100.578 Y114.548 E6.9509
G1 X98.903 Y114.742 E6.98791
G1 X98.291 Y114.716 E7.00136
G1 X96.669 Y114.443 E7.03747
G1 X95.229 Y113.979 E7.07068
G1 X94.975 Y113.866 E7.07678
G1 X85.532 Y113.824 E7.28407
G1 X84.889 Y113.726 E7.29835
G1 X84.057 Y113.501 E7.31727
G1 X83.455 Y113.658 E7.33093
G1 X81.808 Y113.84 E7.3673
G1 X81.089 Y113.803 E7.3831
G1 X79.585 Y113.541 E7.41662
G1 X78.419 Y113.174 E7.44345
G1 X77.11 Y112.557 E7.47522
G1 X76.448 Y112.119 E7.49264
G1 X75.572 Y111.385 E7.51773
G1 X74.803 Y110.593 E7.54196
G1 X73.778 Y109.193 E7.58005
G1 X73.505 Y108.673 E7.59294
G1 X73.284 Y108.127 E7.60587
G1 X72.513 Y107.999 E7.62303
G1 X72.056 Y108.11 E7.63335
G1 X70.7 Y108.241 E7.66326
G1 X70.042 Y108.213 E7.67772
G1 X68.644 Y107.981 E7.70882
G1 X67.043 Y107.47 E7.74572
G1 X65.997 Y106.952 E7.77134
G1 X65.026 Y106.287 E7.79717
G1 X64.606 Y105.922 E7.80939
G1 X63.474 Y104.742 E7.84528
G1 X62.814 Y103.832 E7.86996
G1 X62.292 Y102.854 E7.8943
G1 X62.006 Y102.125 E7.91149
G1 X61.61 Y100.674 E7.9445
G1 X61.442 Y99.207 E7.97692
G1 X61.484 Y98.138 E8.0004
G1 X61.609 Y97.372 E8.01744
G1 X62.025 Y95.939 E8.05019
G1 X62.028 Y85.654 E8.27597
G1 X61.763 Y85.137 E8.28872
G1 X61.353 Y84.049 E8.31424
G1 X60.995 Y82.632 E8.34633
G1 X60.853 Y81.077 E8.3806
G1 X60.877 Y80.571 E8.39172
G1 X61.109 Y79.211 E8.42201
G1 X61.529 Y77.846 E8.45336
G1 X62.059 Y76.705 E8.48098
G1 X62.513 Y75.989 E8.49959
G1 X63.137 Y75.209 E8.52151
G1 X63.988 Y74.338 E8.54824
G1 X64.923 Y73.596 E8.57445
G1 X66.287 Y72.83 E8.60879
G1 X67.127 Y72.512 E8.6285
G1 X68.449 Y72.167 E8.6585
G1 X69.345 Y72.038 E8.67837
G1 X70.066 Y72.003 E8.69421
G1 X71.017 Y72.058 E8.71512
G1 X71.483 Y72.014 E8.7254
G1 X72.014 Y72.023 E8.73706
G1 X72.08 Y71.799 E8.74218
G1 X71.894 Y71.085 E8.75838
G1 X71.762 Y69.936 E8.78377
G1 X71.803 Y68.637 E8.8123
G1 X71.981 Y67.621 E8.83494
G1 X72.121 Y67.141 E8.84592
G1 X71.884 Y66.188 E8.86747
G1 X71.767 Y64.996 E8.89377
G1 X71.822 Y63.818 E8.91965
G1 X71.839 Y63.691 E8.92247
G1 X71.762 Y62.765 E8.94286
G1 X71.81 Y61.826 E8.9635
G1 X71.981 Y60.842 E8.98543
G1 X72.423 Y59.381 E9.01893
G1 X72.844 Y58.441 E9.04154
G1 X73.442 Y57.471 E9.06656
G0 F6000 X73.786 Y57.746
G1 F1200 X74.356 Y57.033 E9.0866
G1 X75.165 Y56.2 E9.11209
G1 X76.156 Y55.419 E9.13978
G1 X77.337 Y54.761 E9.16946
G1 X78.129 Y54.459 E9.18807
G1 X79.368 Y54.131 E9.2162
G1 X80.787 Y53.963 E9.24757
G1 X81.828 Y54.009 E9.27044
G1 X82.687 Y54.156 E9.28957
G1 X84.19 Y54.603 E9.324
G1 X85.346 Y55.144 E9.35201
G1 X85.538 Y55.265 E9.357
G1 X94.231 Y55.265 E9.54782
G1 X95.059 Y54.812 E9.56854
G1 X96.052 Y54.429 E9.5919
G1 X97.229 Y54.118 E9.61863
G1 X97.977 Y53.999 E9.63525
G1 X99.342 Y53.98 E9.66522
G1 X100.188 Y54.092 E9.68395
G1 X102.03 Y54.611 E9.72596
G1 X102.175 Y54.666 E9.72937
G1 X103.256 Y55.192 E9.75576
G1 X104.015 Y55.699 E9.77579
G1 X104.431 Y56.051 E9.78776
G1 X105.849 Y57.572 E9.8334
G1 X106.223 Y58.112 E9.84782
G1 X106.723 Y59.055 E9.87125
G1 X107.076 Y59.955 E9.89248
G1 X107.361 Y60.992 E9.91608
G1 X107.54 Y62.234 E9.94363
G1 X107.537 Y63.26 E9.96615
G1 X107.605 Y64.081 E9.98424
G1 X107.568 Y64.874 E10.00166
G1 X107.373 Y65.997 E10.02668
G1 X107.202 Y66.595 E10.04034
G1 X107.382 Y67.259 E10.05544
G1 X107.522 Y68.147 E10.07517
G1 X107.527 Y69.539 E10.10573
G1 X107.434 Y70.189 E10.12014
G1 X107.55 Y70.929 E10.13659
G1 X107.569 Y71.98 E10.15966
G1 X107.459 Y72.866 E10.17926
G1 X107.47 Y72.948 E10.18108
G1 X107.788 Y73.046 E10.18838
G1 X107.893 Y73.091 E10.19089
G1 X108.921 Y72.979 E10.21359
G1 X109.723 Y73.003 E10.2312
G1 X110.951 Y73.2 E10.2585
G1 X111.932 Y73.476 E10.28087
G1 X113.519 Y74.181 E10.31899
G1 X114.105 Y74.559 E10.3343
G1 X114.958 Y75.268 E10.35865
G1 X115.804 Y76.161 E10.38565
G1 X116.545 Y77.171 E10.41315
G1 X117.112 Y78.251 E10.43993
G1 X117.39 Y79.006 E10.45759
G1 X117.677 Y80.06 E10.48157
G1 X117.833 Y81.047 E10.5035
G1 X117.845 Y82.185 E10.52849
G1 X117.653 Y83.514 E10.55796
G1 X117.508 Y84.029 E10.56971
G1 X117.527 Y84.307 E10.57582
G1 X117.489 Y94.403 E10.79745
G1 X117.412 Y94.943 E10.80942
G1 X117.062 Y96.211 E10.8383
G1 X116.751 Y96.924 E10.85537
G1 X116.45 Y97.46 E10.86887
G1 X116.326 Y97.634 E10.87356
G1 X116.481 Y98.704 E10.89729
G1 X116.487 Y99.064 E10.9052
G1 X116.379 Y100.313 E10.93272
G1 X116.255 Y100.901 E10.94591
G1 X115.845 Y102.221 E10.97625
G1 X115.21 Y103.556 E11.0087
G1 X114.814 Y104.143 E11.02424
G1 X114.126 Y104.942 E11.04739
G1 X112.986 Y105.978 E11.08121
G1 X111.974 Y106.658 E11.10797
G1 X111.097 Y107.083 E11.12936
G1 X110.256 Y107.371 E11.14888
G1 X108.932 Y107.693 E11.17879
G1 X107.829 Y107.808 E11.20313
G1 X107.233 Y107.789 E11.21622
G1 X106.93 Y108.792 E11.23922
G1 X106.528 Y109.678 E11.26058
G1 X105.925 Y110.63 E11.28532
G1 X105.245 Y111.45 E11.3087
G1 X104.624 Y112.065 E11.32789
G1 X103.479 Y112.942 E11.35955
G1 X102.541 Y113.452 E11.38298
G1 X101.452 Y113.863 E11.40854
G1 X100.466 Y114.122 E11.43091
G1 X98.919 Y114.302 E11.4651
G1 X98.363 Y114.282 E11.47732
G1 X96.804 Y114.024 E11.512
G1 X95.364 Y113.56 E11.54522
G1 X95.07 Y113.426 E11.55231
G1 X85.597 Y113.389 E11.76026
G1 X85.004 Y113.301 E11.77342
G1 X84.059 Y113.046 E11.7949
G1 X83.344 Y113.232 E11.81112
G1 X81.831 Y113.401 E11.84454
G1 X81.112 Y113.364 E11.86035
G1 X79.716 Y113.121 E11.89145
G1 X78.605 Y112.775 E11.91699
G1 X77.351 Y112.189 E11.94738
G1 X76.731 Y111.782 E11.96366
G1 X75.855 Y111.048 E11.98875
G1 X75.157 Y110.332 E12.0107
G1 X74.168 Y108.988 E12.04733
G1 X73.895 Y108.468 E12.06022
G1 X73.599 Y107.733 E12.07761
G1 X72.622 Y107.573 E12.09935
G1 X72.513 Y107.546 E12.10181
G1 X71.952 Y107.682 E12.11448
G1 X70.719 Y107.801 E12.14168
G1 X70.061 Y107.773 E12.15613
G1 X68.776 Y107.561 E12.18472
G1 X67.237 Y107.075 E12.22015
G1 X66.245 Y106.588 E12.24441
G1 X65.314 Y105.954 E12.26913
G1 X64.924 Y105.617 E12.28045
G1 X63.792 Y104.437 E12.31634
G1 X63.171 Y103.575 E12.33967
G1 X62.702 Y102.693 E12.36159
G1 X62.416 Y101.964 E12.37878
G1 X62.047 Y100.622 E12.40934
G1 X61.882 Y99.224 E12.44024
G1 X61.924 Y98.155 E12.46372
G1 X62.032 Y97.495 E12.4784
G1 X62.465 Y96.003 E12.51251
G1 X62.468 Y85.547 E12.74203
G1 X62.174 Y84.981 E12.75603
G1 X61.78 Y83.941 E12.78045
G1 X61.422 Y82.524 E12.81253
G1 X61.293 Y81.098 E12.84396
G1 X61.317 Y80.592 E12.85508
G1 X61.53 Y79.34 E12.88296
G1 X61.95 Y77.975 E12.91431
G1 X62.431 Y76.941 E12.93934
G1 X62.885 Y76.225 E12.95795
G1 X63.453 Y75.516 E12.9779
G1 X64.262 Y74.683 E13.00339
G1 X65.197 Y73.941 E13.02959
G1 X66.444 Y73.241 E13.06098
G1 X67.239 Y72.938 E13.07966
G1 X68.512 Y72.603 E13.10855
G1 X69.408 Y72.474 E13.12842
G1 X70.044 Y72.442 E13.1424
G1 X70.882 Y72.484 E13.16082
G1 X71.008 Y72.502 E13.16362
G1 X71.476 Y72.454 E13.17394
G1 X72.366 Y72.469 E13.19348
G1 X72.415 Y72.218 E13.1991
G1 X72.537 Y71.807 E13.20851
G1 X72.32 Y70.974 E13.2274
G1 X72.202 Y69.948 E13.25008
G1 X72.237 Y68.712 E13.27722
G1 X72.404 Y67.744 E13.29878
G1 X72.577 Y67.149 E13.31238
G1 X72.322 Y66.143 E13.33517
G1 X72.207 Y65.017 E13.36001
G1 X72.262 Y63.839 E13.3859
G1 X72.282 Y63.705 E13.38887
G1 X72.202 Y62.786 E13.40912
G1 X72.244 Y61.901 E13.42857
G1 X72.415 Y60.917 E13.4505
G1 X72.825 Y59.561 E13.48159
G1 X73.246 Y58.621 E13.5042
G1 X73.786 Y57.746 E13.52677
G0 F6000 X74.16 Y57.978
G1 F1200 X74.672 Y57.34 E13.54473
G1 X75.481 Y56.507 E13.57022
G1 X76.372 Y55.803 E13.59515
G1 X77.495 Y55.172 E13.62343
G1 X78.243 Y54.884 E13.64102
G1 X79.421 Y54.568 E13.66779
G1 X80.769 Y54.403 E13.69761
G1 X81.754 Y54.443 E13.71925
G1 X82.613 Y54.59 E13.73838
G1 X84.003 Y55.002 E13.7702
G1 X85.159 Y55.543 E13.79822
G1 X85.409 Y55.705 E13.80476
G1 X94.344 Y55.705 E14.0009
G1 X95.217 Y55.223 E14.02279
G1 X96.21 Y54.84 E14.04615
G1 X97.298 Y54.553 E14.07085
G1 X98.046 Y54.434 E14.08748
G1 X99.287 Y54.417 E14.11472
G1 X100.069 Y54.516 E14.13203
G1 X101.911 Y55.035 E14.17404
G1 X101.982 Y55.062 E14.1757
G1 X103.063 Y55.588 E14.20209
G1 X103.733 Y56.037 E14.2198
G1 X104.11 Y56.352 E14.23058
G1 X105.487 Y57.823 E14.27481
G1 X105.861 Y58.363 E14.28923
G1 X106.313 Y59.216 E14.31042
G1 X106.666 Y60.116 E14.33165
G1 X106.925 Y61.055 E14.35303
