;FLAVOR:Marlin
;TIME:7832
;Filament used: 9.26011m
;Layer height: 0.28
;MINX:25.584
;MINY:54.284
;MINZ:0.28
;MAXX:160.817
;MAXY:122.46
;MAXZ:14.56
;Generated with Cura_SteamEngine 5.3.1
M140 S60
M105
M190 S60
M104 S200
M105
M109 S200
M82 ;absolute extrusion mode
G28 ; home all axes
 M117 Purge extruder
 G92 E0 ; reset extruder
 G1 Z1.0 F3000 ; move z up little to prevent scratching of surface
 G1 X2 Y20 Z0.3 F5000.0 ; move to start-line position
 G1 X2 Y175.0 Z0.3 F1500.0 E15 ; draw 1st line
 G1 X2 Y175.0 Z0.4 F5000.0 ; move to side a little
 G1 X2 Y20 Z0.4 F1500.0 E30 ; draw 2nd line
 G92 E0 ; reset extruder
 G1 Z1.0 F3000 ; move z up little to prevent scratching of surface
G92 E0
G92 E0
G1 F2400 E-1
;LAYER_COUNT:50
;LAYER:0
M107
G1 F240 Z0.84
;MESH:Bottom1.stl
G0 F6000 X85.43 Y122.006 Z0.84
;TYPE:WALL-INNER
G1 F240 Z0.28
G1 F2400 E0
G1 F1200 X85.922 Y121.926 E0.02553
G1 X86.355 Y121.798 E0.04866
G1 X86.787 Y121.591 E0.0732
G1 X87.173 Y121.345 E0.09664
G1 X87.636 Y120.922 E0.12876
G1 X87.81 Y120.714 E0.14265
G1 X87.994 Y120.447 E0.15926
G1 X88.208 Y120.032 E0.18318
G1 X88.442 Y119.298 E0.22264
G1 X88.503 Y118.683 E0.25429
G1 X88.503 Y59.647 E3.27815
G1 X88.441 Y58.997 E3.3116
G1 X88.27 Y58.403 E3.34326
G1 X87.999 Y57.86 E3.37434
G1 X87.649 Y57.397 E3.40407
G1 X87.192 Y56.97 E3.43611
G1 X86.788 Y56.709 E3.46074
G1 X86.354 Y56.501 E3.48539
G1 X86.122 Y56.422 E3.49795
G1 X85.458 Y56.296 E3.53256
G1 X85.14 Y56.281 E3.54887
G1 X29.392 Y56.28 E6.40432
G1 X29.05 Y56.299 E6.42186
G1 X28.436 Y56.413 E6.45385
G1 X28.18 Y56.499 E6.46768
G1 X27.729 Y56.717 E6.49334
G1 X27.226 Y57.06 E6.52452
G1 X26.897 Y57.371 E6.54771
G1 X26.689 Y57.627 E6.56461
G1 X26.382 Y58.121 E6.5944
G1 X26.256 Y58.401 E6.61012
G1 X26.119 Y58.854 E6.63437
G1 X26.038 Y59.354 E6.66031
G1 X26.024 Y59.643 E6.67513
G1 X26.025 Y118.666 E9.69832
G1 X26.062 Y119.136 E9.72247
G1 X26.155 Y119.594 E9.74641
G1 X26.373 Y120.157 E9.77733
G1 X26.598 Y120.54 E9.80008
G1 X27.113 Y121.142 E9.84066
G1 X27.346 Y121.339 E9.85629
G1 X27.741 Y121.593 E9.88035
G1 X28.161 Y121.793 E9.90417
G1 X28.597 Y121.925 E9.92751
G1 X29.406 Y122.02 E9.96923
G1 X85.141 Y122.019 E12.82401
G1 X85.43 Y122.006 E12.83883
G0 F6000 X85.476 Y122.444
;TYPE:WALL-OUTER
G1 F1200 X86.02 Y122.356 E12.86705
G1 X86.513 Y122.21 E12.89339
G1 X87.001 Y121.977 E12.92109
G1 X87.442 Y121.695 E12.9479
G1 X87.955 Y121.227 E12.98347
G1 X88.161 Y120.98 E12.99994
G1 X88.372 Y120.674 E13.01898
G1 X88.616 Y120.201 E13.04624
G1 X88.876 Y119.387 E13.09001
G1 X88.943 Y118.705 E13.12511
G1 X88.943 Y59.626 E16.15117
G1 X88.875 Y58.914 E16.18781
G1 X88.682 Y58.243 E16.22357
G1 X88.375 Y57.627 E16.25882
G1 X87.977 Y57.101 E16.29261
G1 X87.464 Y56.622 E16.32856
G1 X87.004 Y56.324 E16.35663
G1 X86.52 Y56.093 E16.3841
G1 X86.234 Y55.996 E16.39957
G1 X85.51 Y55.858 E16.43732
G1 X85.15 Y55.841 E16.45578
G1 X29.38 Y55.84 E19.31235
G1 X28.998 Y55.861 E19.33195
G1 X28.326 Y55.986 E19.36696
G1 X28.014 Y56.091 E19.38382
G1 X27.508 Y56.335 E19.4126
G1 X26.95 Y56.716 E19.4472
G1 X26.574 Y57.071 E19.47369
G1 X26.33 Y57.371 E19.4935
G1 X25.992 Y57.914 E19.52626
G1 X25.843 Y58.247 E19.54494
G1 X25.689 Y58.754 E19.57208
G1 X25.6 Y59.308 E19.60083
G1 X25.584 Y59.633 E19.61749
G1 X25.585 Y118.684 E22.64212
G1 X25.626 Y119.198 E22.66853
G1 X25.731 Y119.718 E22.6957
G1 X25.975 Y120.349 E22.73036
G1 X26.238 Y120.796 E22.75692
G1 X26.802 Y121.455 E22.80135
G1 X27.084 Y121.693 E22.82025
G1 X27.527 Y121.979 E22.84726
G1 X28.002 Y122.205 E22.8742
G1 X28.507 Y122.357 E22.90121
G1 X29.38 Y122.46 E22.94624
G1 X85.151 Y122.459 E25.80286
G1 X85.476 Y122.444 E25.81953
G0 F6000 X85.387 Y121.61
;TYPE:SKIN
G1 F1200 X85.124 Y121.623 E25.83302
G1 X29.432 Y121.624 E28.68559
G1 X28.679 Y121.534 E28.72444
G1 X28.303 Y121.421 E28.74455
G1 X27.935 Y121.246 E28.76542
G1 X27.586 Y121.021 E28.78669
G1 X27.39 Y120.855 E28.79985
G1 X26.919 Y120.308 E28.83682
G1 X26.731 Y119.987 E28.85587
G1 X26.539 Y119.486 E28.88335
G1 X26.456 Y119.082 E28.90448
G1 X26.421 Y118.637 E28.92734
G1 X26.42 Y59.661 E31.94813
G1 X26.434 Y59.395 E31.96177
G1 X26.506 Y58.943 E31.98522
G1 X26.629 Y58.543 E32.00665
G1 X26.735 Y58.303 E32.02009
G1 X27.012 Y57.858 E32.04694
G1 X27.189 Y57.641 E32.06128
G1 X27.477 Y57.369 E32.08157
G1 X27.931 Y57.059 E32.10973
G1 X28.319 Y56.871 E32.13181
G1 X28.546 Y56.796 E32.14406
G1 X29.09 Y56.695 E32.1724
G1 X29.413 Y56.677 E32.18897
G1 X85.122 Y56.677 E35.04242
G1 X85.414 Y56.691 E35.05739
G1 X86.023 Y56.807 E35.08915
G1 X86.201 Y56.867 E35.09877
G1 X86.587 Y57.052 E35.12069
G1 X86.947 Y57.285 E35.14266
G1 X87.357 Y57.667 E35.17136
G1 X87.66 Y58.068 E35.1971
G1 X87.897 Y58.546 E35.22443
G1 X88.051 Y59.08 E35.2529
G1 X88.107 Y59.658 E35.28264
G1 X88.107 Y118.667 E38.30512
G1 X88.052 Y119.217 E38.33343
G1 X87.842 Y119.874 E38.36876
G1 X87.653 Y120.242 E38.38995
G1 X87.495 Y120.471 E38.4042
G1 X87.344 Y120.652 E38.41627
G1 X86.933 Y121.028 E38.4448
G1 X86.594 Y121.244 E38.46539
G1 X86.209 Y121.427 E38.48723
G1 X85.839 Y121.537 E38.507
G1 X85.387 Y121.61 E38.53045
G1 F2400 E37.53045
G1 F240 Z0.84
G0 F6000 X28.548 Y121.263 Z0.84
G1 F240 Z0.28
G1 F2400 E38.53045
G1 F1200 X26.778 Y119.493 E38.65866
G0 F6000 X26.649 Y118.743
G1 F1200 X29.29 Y121.384 E38.84997
G0 F6000 X29.931 Y121.402
G1 F1200 X26.64 Y118.111 E39.08836
G0 F6000 X26.64 Y117.489
G1 F1200 X30.553 Y121.402 E39.37181
G0 F6000 X31.175 Y121.402
G1 F1200 X26.64 Y116.867 E39.70031
G0 F6000 X26.64 Y116.244
G1 F1200 X31.797 Y121.402 E40.0739
G0 F6000 X32.42 Y121.402
G1 F1200 X26.64 Y115.622 E40.49259
G0 F6000 X26.64 Y115
G1 F1200 X33.042 Y121.402 E40.95633
G0 F6000 X33.664 Y121.402
G1 F1200 X26.64 Y114.378 E41.46512
G0 F6000 X26.64 Y113.755
G1 F1200 X34.286 Y121.402 E42.01901
G0 F6000 X34.909 Y121.402
G1 F1200 X26.64 Y113.133 E42.61799
G0 F6000 X26.64 Y112.511
G1 F1200 X35.531 Y121.402 E43.26203
G0 F6000 X36.153 Y121.402
G1 F1200 X26.64 Y111.889 E43.95112
G0 F6000 X26.64 Y111.266
G1 F1200 X36.775 Y121.402 E44.6853
G0 F6000 X37.398 Y121.402
G1 F1200 X26.64 Y110.644 E45.46458
G0 F6000 X26.64 Y110.022
G1 F1200 X38.02 Y121.402 E46.28891
G0 F6000 X38.642 Y121.402
G1 F1200 X26.64 Y109.4 E47.1583
G0 F6000 X26.64 Y108.777
G1 F1200 X39.264 Y121.402 E48.07278
G0 F6000 X39.887 Y121.402
G1 F1200 X26.64 Y108.155 E49.03235
G0 F6000 X26.64 Y107.533
G1 F1200 X40.509 Y121.402 E50.03698
G0 F6000 X41.131 Y121.402
G1 F1200 X26.64 Y106.911 E51.08666
G0 F6000 X26.64 Y106.288
G1 F1200 X41.753 Y121.402 E52.18143
G0 F6000 X42.376 Y121.402
G1 F1200 X26.64 Y105.666 E53.3213
G0 F6000 X26.64 Y105.044
G1 F1200 X42.998 Y121.402 E54.50622
G0 F6000 X43.62 Y121.402
G1 F1200 X26.64 Y104.421 E55.73624
G0 F6000 X26.64 Y103.799
G1 F1200 X44.242 Y121.402 E57.01131
G0 F6000 X44.865 Y121.402
G1 F1200 X26.64 Y103.177 E58.33147
G0 F6000 X26.64 Y102.555
G1 F1200 X45.487 Y121.402 E59.69669
G0 F6000 X46.109 Y121.402
G1 F1200 X26.64 Y101.932 E61.107
G0 F6000 X26.64 Y101.31
G1 F1200 X46.731 Y121.402 E62.56236
G0 F6000 X47.354 Y121.402
G1 F1200 X26.64 Y100.688 E64.06282
G0 F6000 X26.64 Y100.066
G1 F1200 X47.976 Y121.402 E65.60833
G0 F6000 X48.598 Y121.402
G1 F1200 X26.64 Y99.443 E67.19894
G0 F6000 X26.64 Y98.821
G1 F1200 X49.22 Y121.402 E68.8346
G0 F6000 X49.843 Y121.402
G1 F1200 X26.64 Y98.199 E70.51535
G0 F6000 X26.64 Y97.577
G1 F1200 X50.465 Y121.402 E72.24116
G0 F6000 X51.087 Y121.402
G1 F1200 X26.64 Y96.954 E74.01206
G0 F6000 X26.64 Y96.332
G1 F1200 X51.71 Y121.402 E75.82806
G0 F6000 X52.332 Y121.402
G1 F1200 X26.64 Y95.71 E77.6891
G0 F6000 X26.64 Y95.088
G1 F1200 X52.954 Y121.402 E79.59521
G0 F6000 X53.576 Y121.402
G1 F1200 X26.64 Y94.465 E81.5464
G0 F6000 X26.64 Y93.843
G1 F1200 X54.199 Y121.402 E83.54269
G0 F6000 X54.821 Y121.402
G1 F1200 X26.64 Y93.221 E85.58404
G0 F6000 X26.64 Y92.599
G1 F1200 X55.443 Y121.402 E87.67043
G0 F6000 X56.065 Y121.402
G1 F1200 X26.64 Y91.976 E89.80193
G0 F6000 X26.64 Y91.354
G1 F1200 X56.688 Y121.402 E91.97851
G0 F6000 X57.31 Y121.402
G1 F1200 X26.64 Y90.732 E94.20015
G0 F6000 X26.64 Y90.11
G1 F1200 X57.932 Y121.402 E96.46684
G0 F6000 X58.554 Y121.402
G1 F1200 X26.64 Y89.487 E98.77863
G0 F6000 X26.64 Y88.865
G1 F1200 X59.177 Y121.402 E101.13551
G0 F6000 X59.799 Y121.402
G1 F1200 X26.64 Y88.243 E103.53744
G0 F6000 X26.64 Y87.621
G1 F1200 X60.421 Y121.402 E105.98443
G0 F6000 X61.043 Y121.402
G1 F1200 X26.64 Y86.998 E108.47652
G0 F6000 X26.64 Y86.376
G1 F1200 X61.666 Y121.402 E111.01369
G0 F6000 X62.288 Y121.402
G1 F1200 X26.64 Y85.754 E113.59592
G0 F6000 X26.64 Y85.132
G1 F1200 X62.91 Y121.402 E116.2232
G0 F6000 X63.532 Y121.402
G1 F1200 X26.64 Y84.509 E118.89558
G0 F6000 X26.64 Y83.887
G1 F1200 X64.155 Y121.402 E121.61305
G0 F6000 X64.777 Y121.402
G1 F1200 X26.64 Y83.265 E124.37558
G0 F6000 X26.64 Y82.643
G1 F1200 X65.399 Y121.402 E127.18316
G0 F6000 X66.021 Y121.402
G1 F1200 X26.64 Y82.02 E130.03583
G0 F6000 X26.64 Y81.398
G1 F1200 X66.644 Y121.402 E132.9336
G0 F6000 X67.266 Y121.402
G1 F1200 X26.64 Y80.776 E135.87642
G0 F6000 X26.64 Y80.154
G1 F1200 X67.888 Y121.402 E138.86429
G0 F6000 X68.51 Y121.402
G1 F1200 X26.64 Y79.531 E141.89726
G0 F6000 X26.64 Y78.909
G1 F1200 X69.133 Y121.402 E144.97532
G0 F6000 X69.755 Y121.402
G1 F1200 X26.64 Y78.287 E148.09844
G0 F6000 X26.64 Y77.665
G1 F1200 X70.377 Y121.402 E151.26661
G0 F6000 X70.999 Y121.402
G1 F1200 X26.64 Y77.042 E154.47987
G0 F6000 X26.64 Y76.42
G1 F1200 X71.622 Y121.402 E157.73823
G0 F6000 X72.244 Y121.402
G1 F1200 X26.64 Y75.798 E161.04164
G0 F6000 X26.64 Y75.176
G1 F1200 X72.866 Y121.402 E164.39011
G0 F6000 X73.488 Y121.402
G1 F1200 X26.64 Y74.553 E167.78367
G0 F6000 X26.64 Y73.931
G1 F1200 X74.111 Y121.402 E171.22232
G0 F6000 X74.733 Y121.402
G1 F1200 X26.64 Y73.309 E174.70602
G0 F6000 X26.64 Y72.687
G1 F1200 X75.355 Y121.402 E178.23479
G0 F6000 X75.977 Y121.402
G1 F1200 X26.64 Y72.064 E181.80864
G0 F6000 X26.64 Y71.442
G1 F1200 X76.6 Y121.402 E185.42759
G0 F6000 X77.222 Y121.402
G1 F1200 X26.64 Y70.82 E189.09159
G0 F6000 X26.64 Y70.198
G1 F1200 X77.844 Y121.402 E192.80065
G0 F6000 X78.466 Y121.402
G1 F1200 X26.64 Y69.575 E196.5548
G0 F6000 X26.64 Y68.953
G1 F1200 X79.089 Y121.402 E200.35404
G0 F6000 X79.711 Y121.402
G1 F1200 X26.64 Y68.331 E204.19834
G0 F6000 X26.64 Y67.709
G1 F1200 X80.333 Y121.402 E208.08769
G0 F6000 X80.955 Y121.402
G1 F1200 X26.64 Y67.086 E212.02214
G0 F6000 X26.64 Y66.464
G1 F1200 X81.578 Y121.402 E216.00167
G0 F6000 X82.2 Y121.402
G1 F1200 X26.64 Y65.842 E220.02627
G0 F6000 X26.64 Y65.219
G1 F1200 X82.822 Y121.402 E224.09595
G0 F6000 X83.444 Y121.402
G1 F1200 X26.64 Y64.597 E228.21069
G0 F6000 X26.64 Y63.975
G1 F1200 X84.067 Y121.402 E232.37052
G0 F6000 X84.689 Y121.402
G1 F1200 X26.64 Y63.353 E236.57541
G0 F6000 X26.64 Y62.73
G1 F1200 X85.301 Y121.392 E240.82467
G0 F6000 X85.837 Y121.306
G1 F1200 X26.64 Y62.108 E245.11275
G0 F6000 X26.64 Y61.486
G1 F1200 X86.295 Y121.141 E249.43397
G0 F6000 X86.694 Y120.918
G1 F1200 X26.64 Y60.864 E253.7841
G0 F6000 X26.64 Y60.241
G1 F1200 X87.034 Y120.636 E258.15889
G0 F6000 X87.336 Y120.315
G1 F1200 X26.642 Y59.621 E262.55537
G0 F6000 X26.708 Y59.066
G1 F1200 X87.568 Y119.926 E266.96388
G0 F6000 X87.739 Y119.474
G1 F1200 X26.85 Y58.585 E271.37449
G0 F6000 X27.068 Y58.181
G1 F1200 X87.855 Y118.968 E275.77771
G0 F6000 X87.887 Y118.377
G1 F1200 X27.326 Y57.817 E280.16452
G0 F6000 X27.649 Y57.517
G1 F1200 X87.887 Y117.755 E284.52797
G0 F6000 X87.887 Y117.132
G1 F1200 X28.019 Y57.265 E288.86459
G0 F6000 X28.439 Y57.062
G1 F1200 X87.887 Y116.51 E293.17082
G0 F6000 X87.887 Y115.888
G1 F1200 X28.944 Y56.946 E297.44043
G0 F6000 X29.517 Y56.896
G1 F1200 X87.887 Y115.266 E301.66857
G0 F6000 X87.887 Y114.643
G1 F1200 X30.139 Y56.896 E305.85162
G0 F6000 X30.761 Y56.896
G1 F1200 X87.887 Y114.021 E309.98961
G0 F6000 X87.887 Y113.399
G1 F1200 X31.384 Y56.896 E314.08251
G0 F6000 X32.006 Y56.896
G1 F1200 X87.887 Y112.777 E318.13036
G0 F6000 X87.887 Y112.154
G1 F1200 X32.628 Y56.896 E322.13311
G0 F6000 X33.25 Y56.896
G1 F1200 X87.887 Y111.532 E326.09081
G0 F6000 X87.887 Y110.91
G1 F1200 X33.873 Y56.896 E330.00341
G0 F6000 X34.495 Y56.896
G1 F1200 X87.887 Y110.288 E333.87096
G0 F6000 X87.887 Y109.665
G1 F1200 X35.117 Y56.896 E337.69342
G0 F6000 X35.74 Y56.896
G1 F1200 X87.887 Y109.043 E341.47079
G0 F6000 X87.887 Y108.421
G1 F1200 X36.362 Y56.896 E345.2031
G0 F6000 X36.984 Y56.896
G1 F1200 X87.887 Y107.799 E348.89035
G0 F6000 X87.887 Y107.176
G1 F1200 X37.606 Y56.896 E352.53251
G0 F6000 X38.229 Y56.896
G1 F1200 X87.887 Y106.554 E356.12958
G0 F6000 X87.887 Y105.932
G1 F1200 X38.851 Y56.896 E359.6816
G0 F6000 X39.473 Y56.896
G1 F1200 X87.887 Y105.31 E363.18856
G0 F6000 X87.887 Y104.687
G1 F1200 X40.095 Y56.896 E366.65042
G0 F6000 X40.718 Y56.896
G1 F1200 X87.887 Y104.065 E370.0672
G0 F6000 X87.887 Y103.443
G1 F1200 X41.34 Y56.896 E373.43892
G0 F6000 X41.962 Y56.896
G1 F1200 X87.887 Y102.821 E376.76558
G0 F6000 X87.887 Y102.198
G1 F1200 X42.584 Y56.896 E380.04715
G0 F6000 X43.207 Y56.896
G1 F1200 X87.887 Y101.576 E383.28363
G0 F6000 X87.887 Y100.954
G1 F1200 X43.829 Y56.896 E386.47506
G0 F6000 X44.451 Y56.896
G1 F1200 X87.887 Y100.332 E389.62143
G0 F6000 X87.887 Y99.709
G1 F1200 X45.073 Y56.896 E392.7227
G0 F6000 X45.696 Y56.896
G1 F1200 X87.887 Y99.087 E395.77889
G0 F6000 X87.887 Y98.465
G1 F1200 X46.318 Y56.896 E398.79001
G0 F6000 X46.94 Y56.896
G1 F1200 X87.887 Y97.843 E401.75609
G0 F6000 X87.887 Y97.22
G1 F1200 X47.562 Y56.896 E404.67707
G0 F6000 X48.185 Y56.896
G1 F1200 X87.887 Y96.598 E407.55296
G0 F6000 X87.887 Y95.976
G1 F1200 X48.807 Y56.896 E410.38379
G0 F6000 X49.429 Y56.896
G1 F1200 X87.887 Y95.354 E413.16957
G0 F6000 X87.887 Y94.731
G1 F1200 X50.051 Y56.896 E415.91025
G0 F6000 X50.674 Y56.896
G1 F1200 X87.887 Y94.109 E418.60585
G0 F6000 X87.887 Y93.487
G1 F1200 X51.296 Y56.896 E421.25638
G0 F6000 X51.918 Y56.896
G1 F1200 X87.887 Y92.865 E423.86187
G0 F6000 X87.887 Y92.242
G1 F1200 X52.54 Y56.896 E426.42226
G0 F6000 X53.163 Y56.896
G1 F1200 X87.887 Y91.62 E428.93756
G0 F6000 X87.887 Y90.998
G1 F1200 X53.785 Y56.896 E431.4078
G0 F6000 X54.407 Y56.896
G1 F1200 X87.887 Y90.376 E433.83298
G0 F6000 X87.887 Y89.753
G1 F1200 X55.029 Y56.896 E436.21308
G0 F6000 X55.652 Y56.896
G1 F1200 X87.887 Y89.131 E438.54808
G0 F6000 X87.887 Y88.509
G1 F1200 X56.274 Y56.896 E440.83803
G0 F6000 X56.896 Y56.896
G1 F1200 X87.887 Y87.887 E443.08292
G0 F6000 X87.887 Y87.264
G1 F1200 X57.519 Y56.897 E445.28265
G0 F6000 X58.141 Y56.897
G1 F1200 X87.887 Y86.642 E447.43732
G0 F6000 X87.887 Y86.02
G1 F1200 X58.764 Y56.897 E449.5469
G0 F6000 X59.386 Y56.897
G1 F1200 X87.887 Y85.397 E451.61138
G0 F6000 X87.887 Y84.775
G1 F1200 X60.008 Y56.897 E453.63082
G0 F6000 X60.63 Y56.897
G1 F1200 X87.887 Y84.153 E455.60519
G0 F6000 X87.887 Y83.531
G1 F1200 X61.253 Y56.897 E457.53448
G0 F6000 X61.875 Y56.897
G1 F1200 X87.887 Y82.908 E459.41867
G0 F6000 X87.887 Y82.286
G1 F1200 X62.497 Y56.897 E461.2578
G0 F6000 X63.119 Y56.897
G1 F1200 X87.887 Y81.664 E463.05188
G0 F6000 X87.887 Y81.042
G1 F1200 X63.742 Y56.897 E464.80087
G0 F6000 X64.364 Y56.897
G1 F1200 X87.887 Y80.419 E466.50477
G0 F6000 X87.887 Y79.797
G1 F1200 X64.986 Y56.897 E468.16361
G0 F6000 X65.608 Y56.897
G1 F1200 X87.887 Y79.175 E469.7774
G0 F6000 X87.887 Y78.553
G1 F1200 X66.231 Y56.897 E471.34609
G0 F6000 X66.853 Y56.897
G1 F1200 X87.887 Y77.93 E472.86969
G0 F6000 X87.887 Y77.308
G1 F1200 X67.475 Y56.897 E474.34823
G0 F6000 X68.097 Y56.897
G1 F1200 X87.887 Y76.686 E475.78172
G0 F6000 X87.887 Y76.064
G1 F1200 X68.72 Y56.897 E477.17012
G0 F6000 X69.342 Y56.897
G1 F1200 X87.887 Y75.441 E478.51343
G0 F6000 X87.887 Y74.819
G1 F1200 X69.964 Y56.897 E479.81168
G0 F6000 X70.586 Y56.897
G1 F1200 X87.887 Y74.197 E481.06487
G0 F6000 X87.887 Y73.575
G1 F1200 X71.209 Y56.897 E482.27297
G0 F6000 X71.831 Y56.897
G1 F1200 X87.887 Y72.952 E483.43598
G0 F6000 X87.887 Y72.33
G1 F1200 X72.453 Y56.897 E484.55394
G0 F6000 X73.075 Y56.897
G1 F1200 X87.887 Y71.708 E485.62684
G0 F6000 X87.887 Y71.086
G1 F1200 X73.698 Y56.897 E486.65464
G0 F6000 X74.32 Y56.897
G1 F1200 X87.887 Y70.463 E487.63736
G0 F6000 X87.887 Y69.841
G1 F1200 X74.942 Y56.897 E488.57502
G0 F6000 X75.564 Y56.897
